X: 105
T: Mrs.Conway's Chocolate Cake (h'pipe)
N: 130195
C: BB
R: hornpipe
Q: 1/8=330
M: C|
L: 1/8
K: G
zD|"G"G2 BG "Em"EFGB|"Am"cA"G"BG "Am7"AGED|"G"G2 BG "C"EFGg|"Em"edBA "G"G3 D |
"G"G2 BG "Em"EFGB|"Am"(3cBA "G"BG "Am7"AGED|"G"GBdB "Am"ca (3a^ga|"D"fdef "G"g2 :|
Bc|"G"dbag "D"fedc|"G"BcdB "Am"cA (3ABA|"G"dbag "D"fedc|"G"(3Bcd "D"AF "G"G2 Bc |
"G"dbag "D"fedc|"G"BGGB "Am"cAAd|"Em7"ed^cd "G"gdBd|"D7"cAFA "G"G2 :|
%%%%%%%%%%%%%%%%%%%%%%%%%%%%%%%%%%%%%%%%%%%
